src/assets/outline/Profile2user.svg

<svg width="24" height="24" viewBox="0 0 24 24"  xmlns="http://www.w3.org/2000/svg">
<path d="M9.15957 11.62C9.12957 11.62 9.10957 11.62 9.07957 11.62C9.02957 11.61 8.95957 11.61 8.89957 11.62C5.99957 11.53 3.80957 9.25 3.80957 6.44C3.80957 3.58 6.13957 1.25 8.99957 1.25C11.8596 1.25 14.1896 3.58 14.1896 6.44C14.1796 9.25 11.9796 11.53 9.18957 11.62C9.17957 11.62 9.16957 11.62 9.15957 11.62ZM8.99957 2.75C6.96957 2.75 5.30957 4.41 5.30957 6.44C5.30957 8.44 6.86957 10.05 8.85957 10.12C8.91957 10.11 9.04957 10.11 9.17957 10.12C11.1396 10.03 12.6796 8.42 12.6896 6.44C12.6896 4.41 11.0296 2.75 8.99957 2.75Z" />
<path d="M16.5394 11.75C16.5094 11.75 16.4794 11.75 16.4494 11.74C16.0394 11.78 15.6194 11.49 15.5794 11.08C15.5394 10.67 15.7894 10.3 16.1994 10.25C16.3194 10.24 16.4494 10.24 16.5594 10.24C18.0194 10.16 19.1594 8.96 19.1594 7.49C19.1594 5.97 17.9294 4.74 16.4094 4.74C15.9994 4.75 15.6594 4.41 15.6594 4C15.6594 3.59 15.9994 3.25 16.4094 3.25C18.7494 3.25 20.6594 5.16 20.6594 7.5C20.6594 9.8 18.8594 11.66 16.5694 11.75C16.5594 11.75 16.5494 11.75 16.5394 11.75Z" />
<path d="M9.16961 22.55C7.20961 22.55 5.23961 22.05 3.74961 21.05C2.35961 20.13 1.59961 18.87 1.59961 17.5C1.59961 16.13 2.35961 14.86 3.74961 13.93C6.74961 11.94 11.6096 11.94 14.5896 13.93C15.9696 14.85 16.7396 16.11 16.7396 17.48C16.7396 18.85 15.9796 20.12 14.5896 21.05C13.0896 22.05 11.1296 22.55 9.16961 22.55ZM4.57961 15.19C3.61961 15.83 3.09961 16.65 3.09961 17.51C3.09961 18.36 3.62961 19.18 4.57961 19.81C7.06961 21.48 11.2696 21.48 13.7596 19.81C14.7196 19.17 15.2396 18.35 15.2396 17.49C15.2396 16.64 14.7096 15.82 13.7596 15.19C11.2696 13.53 7.06961 13.53 4.57961 15.19Z" />
<path d="M18.3397 20.75C17.9897 20.75 17.6797 20.51 17.6097 20.15C17.5297 19.74 17.7897 19.35 18.1897 19.26C18.8197 19.13 19.3997 18.88 19.8497 18.53C20.4197 18.1 20.7297 17.56 20.7297 16.99C20.7297 16.42 20.4197 15.88 19.8597 15.46C19.4197 15.12 18.8697 14.88 18.2197 14.73C17.8197 14.64 17.5597 14.24 17.6497 13.83C17.7397 13.43 18.1397 13.17 18.5497 13.26C19.4097 13.45 20.1597 13.79 20.7697 14.26C21.6997 14.96 22.2297 15.95 22.2297 16.99C22.2297 18.03 21.6897 19.02 20.7597 19.73C20.1397 20.21 19.3597 20.56 18.4997 20.73C18.4397 20.75 18.3897 20.75 18.3397 20.75Z" />
</svg>

<?xml version="1.0" encoding="UTF-8"?>
<svg width="24" height="24" viewBox="0 0 24 24" xmlns="http://www.w3.org/2000/svg">
 <path d="m9.1596 11.62h-0.08c-0.05-0.01-0.12-0.01-0.18 0-2.9-0.09-5.09-2.37-5.09-5.18 0-2.86 2.33-5.19 5.19-5.19 2.86 0 5.19 2.33 5.19 5.19-0.01 2.81-2.21 5.09-5 5.18h-0.03zm-0.16-8.87c-2.03 0-3.69 1.66-3.69 3.69 0 2 1.56 3.61 3.55 3.68 0.06-0.01 0.19-0.01 0.32 0 1.96-0.09 3.5-1.7 3.51-3.68 0-2.03-1.66-3.69-3.69-3.69z"/>
 <path d="m16.539 11.75c-0.03 0-0.06 0-0.09-0.01-0.41 0.04-0.83-0.25-0.87-0.66s0.21-0.78 0.62-0.83c0.12-0.01 0.25-0.01 0.36-0.01 1.46-0.08 2.6-1.28 2.6-2.75 0-1.52-1.23-2.75-2.75-2.75-0.41 0.01-0.75-0.33-0.75-0.74s0.34-0.75 0.75-0.75c2.34 0 4.25 1.91 4.25 4.25 0 2.3-1.8 4.16-4.09 4.25h-0.03z"/>
 <path d="m9.1696 22.55c-1.96 0-3.93-0.5-5.42-1.5-1.39-0.92-2.15-2.18-2.15-3.55s0.76-2.64 2.15-3.57c3-1.99 7.86-1.99 10.84 0 1.38 0.92 2.15 2.18 2.15 3.55s-0.76 2.64-2.15 3.57c-1.5 1-3.46 1.5-5.42 1.5zm-4.59-7.36c-0.96 0.64-1.48 1.46-1.48 2.32 0 0.85 0.53 1.67 1.48 2.3 2.49 1.67 6.69 1.67 9.18 0 0.96-0.64 1.48-1.46 1.48-2.32 0-0.85-0.53-1.67-1.48-2.3-2.49-1.66-6.69-1.66-9.18 0z"/>
 <path d="m18.34 20.75c-0.35 0-0.66-0.24-0.73-0.6-0.08-0.41 0.18-0.8 0.58-0.89 0.63-0.13 1.21-0.38 1.66-0.73 0.57-0.43 0.88-0.97 0.88-1.54s-0.31-1.11-0.87-1.53c-0.44-0.34-0.99-0.58-1.64-0.73-0.4-0.09-0.66-0.49-0.57-0.9 0.09-0.4 0.49-0.66 0.9-0.57 0.86 0.19 1.61 0.53 2.22 1 0.93 0.7 1.46 1.69 1.46 2.73s-0.54 2.03-1.47 2.74c-0.62 0.48-1.4 0.83-2.26 1-0.06 0.02-0.11 0.02-0.16 0.02z"/>
</svg>
